resources/godot_icons/light/MultiMeshInstance2D.svg

<svg height="16" width="16" xmlns="http://www.w3.org/2000/svg"><path d="m-1-1h582v402h-582z" fill="none"/><path d="m3 1c-1.1046 0-2 .89543-2 2 .00056.71397.38169 1.3735 1 1.7305v6.541c-.61771.35664-.99874 1.0152-1 1.7285 0 1.1046.89543 2 2 2 .71397-.00056 1.3735-.38169 1.7305-1h1.2695v-2h-1.2715c-.17478-.30301-.42598-.55488-.72852-.73047v-5.8555l3.5859 3.5859h1.4141v-1.4141l-3.5859-3.5859h5.8574c.17532.30158.42647.55205.72852.72656v1.2734h2v-1.2695c.61831-.35698.99944-1.0165 1-1.7305 0-1.1046-.89543-2-2-2-.71397.00056-1.3735.38169-1.7305 1h-6.541c-.35664-.61771-1.0152-.99874-1.7285-1zm8 7v3h-3v2h3v3h2v-3h3v-2h-3v-3z" fill="#6d90ff" stroke-linecap="round" stroke-linejoin="round" stroke-width="2"/></svg>

<svg height="16" viewBox="0 0 16 16" width="16" xmlns="http://www.w3.org/2000/svg"><path d="M4.73 2A2 2 0 1 0 2 4.73v6.541a2 2 0 1 0 2.73 2.73H6v-2H4.73a2 2 0 0 0-.73-.73V5.437l3.564 3.564H9V7.565L5.436 4.001h5.834a2 2 0 0 0 .73.73V6h2V4.731A2 2 0 1 0 11.27 2zM11 8v3H8v2h3v3h2v-3h3v-2h-3V8z" fill="#6d90ff"/></svg>
